X:1
T:大阪しぐれ
T:大阪しぐれ --1980 
T:作曲：市川 昭介 編曲：小関 佳弘 歌：都 はるみ
C:作曲：市川 昭介　編曲：小関 佳弘
%%score ( 1 2 3 )
L:1/8
Q:1/4=68
M:4/4
K:G
V:1 treble-8 nm="Classical Guitar" snm="Guit."
V:2 treble-8 
V:3 treble-8 
V:1
"G""^A"!mp! b4- bg/b/ a/g/e/d/ | G2 (G/A/)(G/A/) B4 |"G" z dde"Em" (a/g/)e/d/ Be | %3
"D7" d4 z/ d/e/d/ BA |"G"!mf! z D2 E G2 (3(A/B/A/)G/A/ | B2 (d/B/)d/g/"Em" e4 | %6
"D7" !>!a/!>!a/!>!a- ab ag"Em" (3(e/g/e/)d/e/ |"G" g3 d/e/!>(! (3(g/a/g/)e/d/ BA!>)! |: %8
"G""^B"!mp! z4 z [Bg]/[Bg]/ [Bg]2 | Bdde d(e/d/) B2 |"C" z [Gce]2 g e2"Em" e/(d/B/)e/ | %11
"G" d4 (B/d/)(e/g/) e/e/d |"C" z3/2 e/ eg{/g} ag ed- |"G" d>B AB d4 |"Em" BAGE"D7" D2 EG | %15
"G" z3/2 [Bg]/ .[Bg][Bg]- [Bg]4 ||"D7""^C"!mf! z3/2 A/ AA- A/(A/B/A/) GA | %17
"G" z (B/d/) de- e/d/e/d/ B2 |"C" z [Gce]2 g e2"Em" e/(d/B/)e/ |"G" d4 z4 | %20
"C" z3/2 e/ ge{/g} ag ed- |"G" d>B AB d2 ge/d/ | B3 A/G/-"Em" G>E DE |1 %23
"G" z3/2 [Bg]/ [Bg][Bg]- [Bg](D/E/) GG ||"Em""^D" e2 [GBe]a (3(g/a/g/)e/d/ Be | %25
 dB/A/ GA B2 (b/a/)g/e/ | d3 b ag (3(e/g/e/)d/e/ | g3 d/e/ (3(g/a/g/)e/d/ BA :|2 %28
"G" z3/2 [Bg]/ [Bg][Bg]- [Bg](D/E/) GG ||"G""^E" B4- BG/B/ (A/G/)(E/D/) || G,2 (G/A/)(G/A/) B4 | %31
"Em" (e/g/)e/d/ e/(d/B/)A/[Q:1/4=62]"_dim." B/(A/G/)E/"D7" !tenuto!D!tenuto!E | %32
"G"[Q:1/4=56] z2 (e/(d/B/)A/ !fermata!B4) |] %33
V:2
 x8 | x8 | G4 E4 | z2 A,/G,/(A,/B,/) D4 | G,6 z2 | G,D- D2 E,2!<(! B,/(D/E/)G/!<)! | %6
 !>!D/!>!D/!>!D- D z D2 E,2 | G,D G z z4 |: z DDE G3 A | G,4 z2 z G, | C4 C2 E,2 | %11
 G,>.[DG] .[DG].[DG] z4 | C>[Gc] [Gc]2 z4 | G,4- G,[DG]/[DG]/ .[DG]!tenuto![DG] | E,4 z4 | G8 || %16
 D2 A,2 D2 A,2 | G,2 D2 G,2 D2 | C2 G,2 C2 E,2 | G,>[DG] [DG][DG] E/G/(E/D/) B,D | %20
 C>[Gc]- [Gc]2 z4 | G,2 D2 G,2 !arpeggio![GB]2 | G,2 D z E,4 |1 G,4 G,4 || E,8 | G,6 z2 | %26
 G,D G2 D2 E,2 | G,D G z z4 :|2 G,4 G,4 || G,DGD G,4 || G,2 z2 z4 | E,6 z2 | [G,G]8 |] %33
V:3
 x8 | x8 | x8 | x8 | x8 | x8 | x8 | x8 |: G,8 | x8 | x8 | x8 | x8 | x8 | x8 | %15
 G,4 B,/D/(E/D/) (B,/A,/)G, || x8 | x8 | x8 | x8 | x8 | x8 | x8 |1 G8 || x8 | x8 | x8 | x8 :|2 %28
 G8 || x8 || x8 | x8 | x8 |] %33

